rospo-icon-theme-classic-common/64x64/apps/nvvp.svg

<svg height="64" viewBox="0 0 64 64" width="64" xmlns="http://www.w3.org/2000/svg"><g transform="translate(0 -280.06667)"><rect fill="#3f3f3f" height="53" rx="1.71" ry="1.606" width="53" x="5" y="285.07"/><path d="m4.4160156 284.06667c-.7848329 0-1.4160156.63118-1.4160156 1.41602v14.16796c0 .78485.6311827 1.41602 1.4160156 1.41602h14.1679684c.784834 0 1.416016-.63117 1.416016-1.41602v-14.16796c0-.78484-.631182-1.41602-1.416016-1.41602zm20.0000004 0c-.784833 0-1.416016.63119-1.416016 1.41602v14.16796c0 .78485.631183 1.41602 1.416016 1.41602h14.167968c.784833 0 1.416016-.63117 1.416016-1.41602v-14.16796c0-.78483-.631183-1.41602-1.416016-1.41602zm20 0c-.784833 0-1.416016.63119-1.416016 1.41602v14.16796c0 .78485.631183 1.41602 1.416016 1.41602h14.167968c.784832 0 1.416016-.63117 1.416016-1.41602v-14.16796c0-.78483-.631184-1.41602-1.416016-1.41602zm-40.0000004 20c-.7848329 0-1.4160156.63118-1.4160156 1.41602v14.16796c0 .78484.6311827 1.41602 1.4160156 1.41602h14.1679684c.784834 0 1.416016-.63118 1.416016-1.41602v-14.16796c0-.78484-.631182-1.41602-1.416016-1.41602zm20.0000004 0c-.784834 0-1.416016.63118-1.416016 1.41602v14.16796c0 .78484.631182 1.41602 1.416016 1.41602h14.167968c.784833 0 1.416016-.63118 1.416016-1.41602v-14.16796c0-.78484-.631183-1.41602-1.416016-1.41602zm20 0c-.784833 0-1.416016.63118-1.416016 1.41602v14.16796c0 .78484.631183 1.41602 1.416016 1.41602h14.167968c.784832 0 1.416016-.63118 1.416016-1.41602v-14.16796c0-.78484-.631184-1.41602-1.416016-1.41602zm-40.0000004 20c-.7848333 0-1.4160156.63117-1.4160156 1.41602v14.16796c0 .78484.6311823 1.41602 1.4160156 1.41602h14.1679684c.784833 0 1.416016-.63118 1.416016-1.41602v-14.16796c0-.78485-.631183-1.41602-1.416016-1.41602zm20.0000004 0c-.784832 0-1.416016.63117-1.416016 1.41602v14.16796c0 .78484.631184 1.41602 1.416016 1.41602h14.167968c.784833 0 1.416016-.63118 1.416016-1.41602v-14.16796c0-.78485-.631183-1.41602-1.416016-1.41602zm20 0c-.784833 0-1.416016.63117-1.416016 1.41602v14.16796c0 .78484.631183 1.41602 1.416016 1.41602h14.167968c.784833 0 1.416016-.63118 1.416016-1.41602v-14.16796c0-.78485-.631183-1.41602-1.416016-1.41602z" opacity=".2"/><path d="m4.4166669 283.06668c-.7848329 0-1.4166664.63186-1.4166664 1.4167v14.16664c0 .78485.6318335 1.41665 1.4166664 1.41665h14.1666661c.784834 0 1.416667-.6318 1.416667-1.41665v-14.16664c0-.78484-.631833-1.4167-1.416667-1.4167z" fill="#b7e267"/><path d="m24.416665 283.06667c-.784833 0-1.416667.63187-1.416667 1.4167v14.16665c0 .78485.631834 1.41665 1.416667 1.41665h14.166673c.784833 0 1.416667-.6318 1.416667-1.41665v-14.16665c0-.78483-.631834-1.4167-1.416667-1.4167z" fill="#3bd3e0"/><path d="m44.416665 283.06667c-.784833 0-1.416667.63187-1.416667 1.4167v14.16665c0 .78485.631834 1.41665 1.416667 1.41665h14.166672c.784832 0 1.41667-.6318 1.41667-1.41665v-14.16665c0-.78483-.631838-1.4167-1.41667-1.4167z" fill="#3bd3e0"/><path d="m4.4166668 303.06667c-.7848329 0-1.4166663.63181-1.4166663 1.41665v14.1667c0 .78484.6318334 1.41665 1.4166663 1.41665h14.1666642c.784834 0 1.416667-.63181 1.416667-1.41665v-14.1667c0-.78484-.631833-1.41665-1.416667-1.41665z" fill="#b7e267"/><path d="m24.416665 303.06667c-.784834 0-1.416667.63181-1.416667 1.41665v14.1667c0 .78484.631833 1.41665 1.416667 1.41665h14.166664c.784833 0 1.416666-.63181 1.416666-1.41665v-14.1667c0-.78484-.631833-1.41665-1.416666-1.41665z" fill="#509b1e"/><path d="m44.416665 303.06667c-.784833 0-1.416667.63181-1.416667 1.41665v14.1667c0 .78484.631834 1.41665 1.416667 1.41665h14.166663c.784832 0 1.416669-.63181 1.416669-1.41665v-14.1667c0-.78484-.631837-1.41665-1.416669-1.41665z" fill="#3bd3e0"/><path d="m4.4166676 323.06667c-.7848333 0-1.4166671.6318-1.4166671 1.41665v14.16665c0 .78484.6318338 1.4167 1.4166671 1.4167h14.1666734c.784833 0 1.416667-.63186 1.416667-1.4167v-14.16665c0-.78485-.631834-1.41665-1.416667-1.41665z" fill="#509b1e"/><path d="m24.416677 323.06667c-.784832 0-1.416667.6318-1.416667 1.41665v14.16665c0 .78484.631835 1.4167 1.416667 1.4167h14.166674c.784833 0 1.416666-.63186 1.416666-1.4167v-14.16665c0-.78485-.631833-1.41665-1.416666-1.41665z" fill="#007aa0"/><path d="m44.416689 323.06667c-.784833 0-1.416667.6318-1.416667 1.41665v14.16665c0 .78484.631834 1.4167 1.416667 1.4167h14.166671c.784833 0 1.416671-.63186 1.416671-1.4167v-14.16665c0-.78485-.631838-1.41665-1.416671-1.41665z" fill="#007aa0"/><path d="m4.4160156 3c-.7848329 0-1.4160156.6311756-1.4160156 1.4160156v1c0-.78484.6311827-1.4160156 1.4160156-1.4160156h14.1679684c.784834 0 1.416016.6311756 1.416016 1.4160156v-1c0-.78484-.631182-1.4160156-1.416016-1.4160156zm20.0000004 0c-.784833 0-1.416016.6311856-1.416016 1.4160156v1c0-.78483.631183-1.4160156 1.416016-1.4160156h14.167968c.784833 0 1.416016.6311856 1.416016 1.4160156v-1c0-.78483-.631183-1.4160156-1.416016-1.4160156zm20 0c-.784833 0-1.416016.6311856-1.416016 1.4160156v1c0-.78483.631183-1.4160156 1.416016-1.4160156h14.167968c.784832 0 1.416016.6311856 1.416016 1.4160156v-1c0-.78483-.631184-1.4160156-1.416016-1.4160156zm-40.0000004 20c-.7848329 0-1.4160156.631176-1.4160156 1.416016v1c0-.78484.6311827-1.416016 1.4160156-1.416016h14.1679684c.784834 0 1.416016.631176 1.416016 1.416016v-1c0-.78484-.631182-1.416016-1.416016-1.416016zm20.0000004 0c-.784834 0-1.416016.631176-1.416016 1.416016v1c0-.78484.631182-1.416016 1.416016-1.416016h14.167968c.784833 0 1.416016.631176 1.416016 1.416016v-1c0-.78484-.631183-1.416016-1.416016-1.416016zm20 0c-.784833 0-1.416016.631176-1.416016 1.416016v1c0-.78484.631183-1.416016 1.416016-1.416016h14.167968c.784832 0 1.416016.631176 1.416016 1.416016v-1c0-.78484-.631184-1.416016-1.416016-1.416016zm-40.0000004 20c-.7848333 0-1.4160156.631166-1.4160156 1.416016v1c0-.78485.6311823-1.416016 1.4160156-1.416016h14.1679684c.784833 0 1.416016.631166 1.416016 1.416016v-1c0-.78485-.631183-1.416016-1.416016-1.416016zm20.0000004 0c-.784832 0-1.416016.631166-1.416016 1.416016v1c0-.78485.631184-1.416016 1.416016-1.416016h14.167968c.784833 0 1.416016.631166 1.416016 1.416016v-1c0-.78485-.631183-1.416016-1.416016-1.416016zm20 0c-.784833 0-1.416016.631166-1.416016 1.416016v1c0-.78485.631183-1.416016 1.416016-1.416016h14.167968c.784833 0 1.416016.631166 1.416016 1.416016v-1c0-.78485-.631183-1.416016-1.416016-1.416016z" fill="#fff" opacity=".2" transform="translate(0 280.06667)"/></g></svg>

<svg xmlns="http://www.w3.org/2000/svg" width="64" height="64" version="1.1" viewBox="0 0 64 64">
 <g transform="translate(0,-280.06667)">
  <rect width="53" height="53" x="5" y="285.07" rx="1.71" ry="1.606" style="fill:#3f3f3f"/>
  <path style="opacity:0.2;stroke:#808080;stroke-width:0;stroke-linecap:round;stroke-linejoin:round" d="M 4.4160156,284.06667 C 3.6311827,284.06667 3,284.69785 3,285.48269 v 14.16796 c 0,0.78485 0.6311827,1.41602 1.4160156,1.41602 H 18.583984 C 19.368818,301.06667 20,300.4355 20,299.65065 v -14.16796 c 0,-0.78484 -0.631182,-1.41602 -1.416016,-1.41602 z m 20.0000004,0 C 23.631183,284.06667 23,284.69786 23,285.48269 v 14.16796 c 0,0.78485 0.631183,1.41602 1.416016,1.41602 H 38.583984 C 39.368817,301.06667 40,300.4355 40,299.65065 v -14.16796 c 0,-0.78483 -0.631183,-1.41602 -1.416016,-1.41602 z m 20,0 C 43.631183,284.06667 43,284.69786 43,285.48269 v 14.16796 c 0,0.78485 0.631183,1.41602 1.416016,1.41602 H 58.583984 C 59.368816,301.06667 60,300.4355 60,299.65065 v -14.16796 c 0,-0.78483 -0.631184,-1.41602 -1.416016,-1.41602 z m -40.0000004,20 C 3.6311827,304.06667 3,304.69785 3,305.48269 v 14.16796 c 0,0.78484 0.6311827,1.41602 1.4160156,1.41602 H 18.583984 C 19.368818,321.06667 20,320.43549 20,319.65065 v -14.16796 c 0,-0.78484 -0.631182,-1.41602 -1.416016,-1.41602 z m 20.0000004,0 C 23.631182,304.06667 23,304.69785 23,305.48269 v 14.16796 c 0,0.78484 0.631182,1.41602 1.416016,1.41602 H 38.583984 C 39.368817,321.06667 40,320.43549 40,319.65065 v -14.16796 c 0,-0.78484 -0.631183,-1.41602 -1.416016,-1.41602 z m 20,0 C 43.631183,304.06667 43,304.69785 43,305.48269 v 14.16796 c 0,0.78484 0.631183,1.41602 1.416016,1.41602 H 58.583984 C 59.368816,321.06667 60,320.43549 60,319.65065 v -14.16796 c 0,-0.78484 -0.631184,-1.41602 -1.416016,-1.41602 z m -40.0000004,20 C 3.6311823,324.06667 3,324.69784 3,325.48269 v 14.16796 c 0,0.78484 0.6311823,1.41602 1.4160156,1.41602 H 18.583984 C 19.368817,341.06667 20,340.43549 20,339.65065 v -14.16796 c 0,-0.78485 -0.631183,-1.41602 -1.416016,-1.41602 z m 20.0000004,0 C 23.631184,324.06667 23,324.69784 23,325.48269 v 14.16796 c 0,0.78484 0.631184,1.41602 1.416016,1.41602 H 38.583984 C 39.368817,341.06667 40,340.43549 40,339.65065 v -14.16796 c 0,-0.78485 -0.631183,-1.41602 -1.416016,-1.41602 z m 20,0 C 43.631183,324.06667 43,324.69784 43,325.48269 v 14.16796 c 0,0.78484 0.631183,1.41602 1.416016,1.41602 H 58.583984 C 59.368817,341.06667 60,340.43549 60,339.65065 v -14.16796 c 0,-0.78485 -0.631183,-1.41602 -1.416016,-1.41602 z"/>
  <path style="fill:#b7e267;stroke:#808080;stroke-width:0;stroke-linecap:round;stroke-linejoin:round" d="m 4.4166669,283.06668 c -0.7848329,0 -1.4166664,0.63186 -1.4166664,1.4167 v 14.16664 c 0,0.78485 0.6318335,1.41665 1.4166664,1.41665 H 18.583333 c 0.784834,0 1.416667,-0.6318 1.416667,-1.41665 v -14.16664 c 0,-0.78484 -0.631833,-1.4167 -1.416667,-1.4167 z"/>
  <path style="fill:#3bd3e0;stroke:#808080;stroke-width:0;stroke-linecap:round;stroke-linejoin:round" d="m 24.416665,283.06667 c -0.784833,0 -1.416667,0.63187 -1.416667,1.4167 v 14.16665 c 0,0.78485 0.631834,1.41665 1.416667,1.41665 h 14.166673 c 0.784833,0 1.416667,-0.6318 1.416667,-1.41665 v -14.16665 c 0,-0.78483 -0.631834,-1.4167 -1.416667,-1.4167 z"/>
  <path style="fill:#3bd3e0;stroke:#808080;stroke-width:0;stroke-linecap:round;stroke-linejoin:round" d="m 44.416665,283.06667 c -0.784833,0 -1.416667,0.63187 -1.416667,1.4167 v 14.16665 c 0,0.78485 0.631834,1.41665 1.416667,1.41665 h 14.166672 c 0.784832,0 1.41667,-0.6318 1.41667,-1.41665 v -14.16665 c 0,-0.78483 -0.631838,-1.4167 -1.41667,-1.4167 z"/>
  <path style="fill:#b7e267;stroke:#808080;stroke-width:0;stroke-linecap:round;stroke-linejoin:round" d="m 4.4166668,303.06667 c -0.7848329,0 -1.4166663,0.63181 -1.4166663,1.41665 v 14.1667 c 0,0.78484 0.6318334,1.41665 1.4166663,1.41665 H 18.583331 c 0.784834,0 1.416667,-0.63181 1.416667,-1.41665 v -14.1667 c 0,-0.78484 -0.631833,-1.41665 -1.416667,-1.41665 z"/>
  <path style="fill:#509b1e;stroke:#808080;stroke-width:0;stroke-linecap:round;stroke-linejoin:round" d="m 24.416665,303.06667 c -0.784834,0 -1.416667,0.63181 -1.416667,1.41665 v 14.1667 c 0,0.78484 0.631833,1.41665 1.416667,1.41665 h 14.166664 c 0.784833,0 1.416666,-0.63181 1.416666,-1.41665 v -14.1667 c 0,-0.78484 -0.631833,-1.41665 -1.416666,-1.41665 z"/>
  <path style="fill:#3bd3e0;stroke:#808080;stroke-width:0;stroke-linecap:round;stroke-linejoin:round" d="m 44.416665,303.06667 c -0.784833,0 -1.416667,0.63181 -1.416667,1.41665 v 14.1667 c 0,0.78484 0.631834,1.41665 1.416667,1.41665 h 14.166663 c 0.784832,0 1.416669,-0.63181 1.416669,-1.41665 v -14.1667 c 0,-0.78484 -0.631837,-1.41665 -1.416669,-1.41665 z"/>
  <path style="fill:#509b1e;stroke:#808080;stroke-width:0;stroke-linecap:round;stroke-linejoin:round" d="m 4.4166676,323.06667 c -0.7848333,0 -1.4166671,0.6318 -1.4166671,1.41665 v 14.16665 c 0,0.78484 0.6318338,1.4167 1.4166671,1.4167 H 18.583341 c 0.784833,0 1.416667,-0.63186 1.416667,-1.4167 v -14.16665 c 0,-0.78485 -0.631834,-1.41665 -1.416667,-1.41665 z"/>
  <path style="fill:#007aa0;stroke:#808080;stroke-width:0;stroke-linecap:round;stroke-linejoin:round" d="m 24.416677,323.06667 c -0.784832,0 -1.416667,0.6318 -1.416667,1.41665 v 14.16665 c 0,0.78484 0.631835,1.4167 1.416667,1.4167 h 14.166674 c 0.784833,0 1.416666,-0.63186 1.416666,-1.4167 v -14.16665 c 0,-0.78485 -0.631833,-1.41665 -1.416666,-1.41665 z"/>
  <path style="fill:#007aa0;stroke:#808080;stroke-width:0;stroke-linecap:round;stroke-linejoin:round" d="m 44.416689,323.06667 c -0.784833,0 -1.416667,0.6318 -1.416667,1.41665 v 14.16665 c 0,0.78484 0.631834,1.4167 1.416667,1.4167 H 58.58336 c 0.784833,0 1.416671,-0.63186 1.416671,-1.4167 v -14.16665 c 0,-0.78485 -0.631838,-1.41665 -1.416671,-1.41665 z"/>
  <path style="fill:#ffffff;stroke:#808080;stroke-width:0;stroke-linecap:round;stroke-linejoin:round;opacity:0.2" d="M 4.4160156 3 C 3.6311827 3 3 3.6311756 3 4.4160156 L 3 5.4160156 C 3 4.6311756 3.6311827 4 4.4160156 4 L 18.583984 4 C 19.368818 4 20 4.6311756 20 5.4160156 L 20 4.4160156 C 20 3.6311756 19.368818 3 18.583984 3 L 4.4160156 3 z M 24.416016 3 C 23.631183 3 23 3.6311856 23 4.4160156 L 23 5.4160156 C 23 4.6311856 23.631183 4 24.416016 4 L 38.583984 4 C 39.368817 4 40 4.6311856 40 5.4160156 L 40 4.4160156 C 40 3.6311856 39.368817 3 38.583984 3 L 24.416016 3 z M 44.416016 3 C 43.631183 3 43 3.6311856 43 4.4160156 L 43 5.4160156 C 43 4.6311856 43.631183 4 44.416016 4 L 58.583984 4 C 59.368816 4 60 4.6311856 60 5.4160156 L 60 4.4160156 C 60 3.6311856 59.368816 3 58.583984 3 L 44.416016 3 z M 4.4160156 23 C 3.6311827 23 3 23.631176 3 24.416016 L 3 25.416016 C 3 24.631176 3.6311827 24 4.4160156 24 L 18.583984 24 C 19.368818 24 20 24.631176 20 25.416016 L 20 24.416016 C 20 23.631176 19.368818 23 18.583984 23 L 4.4160156 23 z M 24.416016 23 C 23.631182 23 23 23.631176 23 24.416016 L 23 25.416016 C 23 24.631176 23.631182 24 24.416016 24 L 38.583984 24 C 39.368817 24 40 24.631176 40 25.416016 L 40 24.416016 C 40 23.631176 39.368817 23 38.583984 23 L 24.416016 23 z M 44.416016 23 C 43.631183 23 43 23.631176 43 24.416016 L 43 25.416016 C 43 24.631176 43.631183 24 44.416016 24 L 58.583984 24 C 59.368816 24 60 24.631176 60 25.416016 L 60 24.416016 C 60 23.631176 59.368816 23 58.583984 23 L 44.416016 23 z M 4.4160156 43 C 3.6311823 43 3 43.631166 3 44.416016 L 3 45.416016 C 3 44.631166 3.6311823 44 4.4160156 44 L 18.583984 44 C 19.368817 44 20 44.631166 20 45.416016 L 20 44.416016 C 20 43.631166 19.368817 43 18.583984 43 L 4.4160156 43 z M 24.416016 43 C 23.631184 43 23 43.631166 23 44.416016 L 23 45.416016 C 23 44.631166 23.631184 44 24.416016 44 L 38.583984 44 C 39.368817 44 40 44.631166 40 45.416016 L 40 44.416016 C 40 43.631166 39.368817 43 38.583984 43 L 24.416016 43 z M 44.416016 43 C 43.631183 43 43 43.631166 43 44.416016 L 43 45.416016 C 43 44.631166 43.631183 44 44.416016 44 L 58.583984 44 C 59.368817 44 60 44.631166 60 45.416016 L 60 44.416016 C 60 43.631166 59.368817 43 58.583984 43 L 44.416016 43 z" transform="translate(0,280.06667)"/>
 </g>
</svg>
